icon/fa/litecoin-sign.svg

<svg xmlns="http://www.w3.org/2000/svg" viewBox="0 0 384 512"><!--! Font Awesome Free 6.1.2 by @fontawesome - https://fontawesome.com License - https://fontawesome.com/license/free (Icons: CC BY 4.0, Fonts: SIL OFL 1.1, Code: MIT License) Copyright 2022 Fonticons, Inc.--><path d="m128 195.3 119.2-34.1c17-4.8 34.7 5 39.6 22 4.8 17-5 34.7-22 39.6L128 261.9V416h224c17.7 0 32 14.3 32 32s-14.3 32-32 32H96c-17.67 0-32-14.3-32-32V280.1l-23.21 6.7c-16.99 4.8-34.703-5-39.558-22-4.855-17 4.984-34.7 21.978-39.6L64 213.6V64c0-17.67 14.33-32 32-32 17.7 0 32 14.33 32 32v131.3z"/></svg>

<svg xmlns="http://www.w3.org/2000/svg" viewBox="0 0 384 512" height="1em" width="1em">
<!--! Font Awesome Free 6.1.2 by @fontawesome - https://fontawesome.com License - https://fontawesome.com/license/free (Icons: CC BY 4.0, Fonts: SIL OFL 1.1, Code: MIT License) Copyright 2022 Fonticons, Inc.-->
  <path d="M128 195.3L247.2 161.2C264.2 156.4 281.9 166.2 286.8 183.2C291.6 200.2 281.8 217.9 264.8 222.8L128 261.9V416H352C369.7 416 384 430.3 384 448C384 465.7 369.7 480 352 480H96C78.33 480 64 465.7 64 448V280.1L40.79 286.8C23.8 291.6 6.087 281.8 1.232 264.8C-3.623 247.8 6.216 230.1 23.21 225.2L64 213.6V64C64 46.33 78.33 32 96 32C113.7 32 128 46.33 128 64V195.3z"/>
</svg>
